public/avatar/hat/73.svg

<svg xmlns:xlink="http://www.w3.org/1999/xlink" height="92.9" width="100.7" xmlns="http://www.w3.org/2000/svg"><use height="17.25" transform="translate(24.35 45.65)" width="28.65" xlink:href="#a"/><defs><g id="a"><path d="m10.7 1.2 3.2 5.85q1 3-.2 6.1L12.2 9.7l-1.5-8.5m-21.35-1-1.5 8.5-1.5 3.45q-1.15-3.1-.2-6.1.5-1.45 3.2-5.85M1.1 3.95l-1.2 1.2q-1.95-2.2-3.7-2.2-1.1 0-2.9.9l-1.55.85Q-4.35.55.1.55 4.5.55 8.35 4 5.9 2.7 3.65 2.7q-1.1 0-2.55 1.25" fill-rule="evenodd" transform="translate(14.3 4.1)"/><path d="M-.15-4.1h.05q5.55 0 9.6 2.95 3.3 2.4 3.65 4.7.15 1.1-.2 2.4-.4 1.35-.2 2.95l.5 2.95q-.95-2.5-2.7-4.95Q6.1.65-.2.65q-4.6 0-9.65 6.25-2.35 2.95-3.9 5.9.6-1.3.9-4 .15-1.6-.15-2.9-.25-1.2-.1-2.35.3-2.35 3.5-4.7Q-5.7-4.1-.15-4.1" fill-rule="evenodd" transform="translate(14.3 4.1)"/><path d="m10.15-.45 1.8-1.9q1.55-1.4 1.95-1.2.35.25.05 3.55l-.5 3.8-1.05 4.25-.45-2.4-1.15-3.2Q9.85 0 10.15-.45m-20.45 0q.15.2-.65 2.9l-1.15 3.2-.25 1.9q-.75-1.3-1.25-3.75l-.5-3.8q-.3-3.3.05-3.55.4-.2 1.95 1.2l1.8 1.9" fill-rule="evenodd" transform="translate(14.3 4.1)"/><path d="M9.05-1.3q.25.1-.1 2.1L8.3 4.3 5.65 2.9v-.2q-.15.2.05-1.65.25-1.95 1.6-2.4l1.75.05" fill="#d4dae0" fill-rule="evenodd" transform="translate(14.3 4.1)"/><path d="m8.3 4.3-.15-3 1-2.2 2.55 2.95q.75 1.1 1.2 4Q11.35 4.2 10.35 5L9.7 6.2 8.3 4.3" fill="#d4dae0" fill-rule="evenodd" transform="translate(14.3 4.1)"/><path d="m8.4-1.45 1.2.65q1.3.9 1.8 1.85 1 2 1.5 5" fill="none" stroke="#7b7f82" stroke-linecap="round" stroke-linejoin="round" transform="translate(14.3 4.1)"/><path d="m3.65 2.7.9-3.8 1.5 3-.4 1-2-.2" fill="#d4dae0" fill-rule="evenodd" transform="translate(14.3 4.1)"/></g></defs></svg>

<?xml version="1.0" encoding="UTF-8" standalone="no"?>
<svg xmlns:xlink="http://www.w3.org/1999/xlink" height="92.9px" width="100.7px" xmlns="http://www.w3.org/2000/svg">
  <g transform="matrix(1.0, 0.0, 0.0, 1.0, 38.65, 49.75)">
    <use height="17.25" transform="matrix(1.0, 0.0, 0.0, 1.0, -14.3, -4.1)" width="28.65" xlink:href="#shape0"/>
  </g>
  <defs>
    <g id="shape0" transform="matrix(1.0, 0.0, 0.0, 1.0, 14.3, 4.1)">
      <path d="M10.7 1.2 L13.9 7.05 Q14.9 10.05 13.7 13.15 L12.2 9.7 10.7 1.2" fill="#000000" fill-rule="evenodd" stroke="none"/>
      <path d="M-10.65 0.2 L-12.15 8.7 -13.65 12.15 Q-14.8 9.05 -13.85 6.05 -13.35 4.6 -10.65 0.2" fill="#000000" fill-rule="evenodd" stroke="none"/>
      <path d="M1.1 3.95 L-0.1 5.15 Q-2.05 2.95 -3.8 2.95 -4.9 2.95 -6.7 3.85 L-8.25 4.7 Q-4.35 0.55 0.1 0.55 4.5 0.55 8.35 4.0 5.9 2.7 3.65 2.7 2.55 2.7 1.1 3.95" fill="#000000" fill-rule="evenodd" stroke="none"/>
      <path d="M-0.15 -4.1 L-0.1 -4.1 Q5.45 -4.1 9.5 -1.15 12.8 1.25 13.15 3.55 13.3 4.65 12.95 5.95 12.55 7.3 12.75 8.9 L13.25 11.85 Q12.3 9.35 10.55 6.9 6.1 0.65 -0.2 0.65 -4.8 0.65 -9.85 6.9 -12.2 9.85 -13.75 12.8 -13.15 11.5 -12.85 8.8 -12.7 7.2 -13.0 5.9 -13.25 4.7 -13.1 3.55 -12.8 1.2 -9.6 -1.15 -5.7 -4.1 -0.15 -4.1" fill="#000000" fill-rule="evenodd" stroke="none"/>
      <path d="M10.15 -0.45 L11.95 -2.35 Q13.5 -3.75 13.9 -3.55 14.25 -3.3 13.95 0.0 L13.45 3.8 12.4 8.05 11.95 5.65 10.8 2.45 Q9.85 0.0 10.15 -0.45" fill="#000000" fill-rule="evenodd" stroke="none"/>
      <path d="M-10.3 -0.45 Q-10.15 -0.25 -10.95 2.45 L-12.1 5.65 -12.35 7.55 Q-13.1 6.25 -13.6 3.8 L-14.1 0.0 Q-14.4 -3.3 -14.05 -3.55 -13.65 -3.75 -12.1 -2.35 L-10.3 -0.45" fill="#000000" fill-rule="evenodd" stroke="none"/>
      <path d="M9.05 -1.3 Q9.3 -1.2 8.95 0.8 L8.3 4.3 5.65 2.9 5.65 2.7 Q5.5 2.9 5.7 1.05 5.95 -0.9 7.3 -1.35 L9.05 -1.3" fill="#d4dae0" fill-rule="evenodd" stroke="none"/>
      <path d="M8.3 4.3 L8.15 1.3 9.15 -0.9 11.7 2.05 Q12.45 3.15 12.9 6.05 11.35 4.2 10.35 5.0 L9.7 6.2 8.3 4.3" fill="#d4dae0" fill-rule="evenodd" stroke="none"/>
      <path d="M8.4 -1.45 L9.6 -0.8 Q10.9 0.1 11.4 1.05 12.4 3.05 12.9 6.05" fill="none" stroke="#7b7f82" stroke-linecap="round" stroke-linejoin="round" stroke-width="1.0"/>
      <path d="M3.65 2.7 L4.55 -1.1 6.05 1.9 5.65 2.9 3.65 2.7" fill="#d4dae0" fill-rule="evenodd" stroke="none"/>
    </g>
  </defs>
</svg>
